libs/icons/src/svg/users-wm.svg

<svg width="16" height="16" viewBox="0 0 16 16" fill="none" xmlns="http://www.w3.org/2000/svg">
<g clip-path="url(#clip0_4_498)">
<path fill-rule="evenodd" clip-rule="evenodd" d="M15.1667 9.86665C15.4133 9.96665 15.6267 10.14 15.7733 10.36C15.92 10.5866 16 10.8466 16 11.1066V14.6533H12V13.32H14.6667V11.1066L12.1733 10.1066C11.9267 10.0133 11.72 9.83998 11.5667 9.61998C11.4133 9.39998 11.3333 9.13998 11.3333 8.87331V7.89998L11.6667 7.71331C11.9733 7.53998 12.2267 7.28665 12.4 6.98665C12.5733 6.68665 12.6667 6.33998 12.6667 5.99331V4.65998C12.6667 4.30665 12.5733 3.96665 12.4 3.65998C12.22 3.35331 11.9733 3.09998 11.6667 2.92665C11.06 2.57331 10.2733 2.57331 9.66667 2.92665L9.08667 3.25998L8.42 2.10665L9 1.77331C10.0133 1.18665 11.32 1.18665 12.3333 1.77331C12.84 2.06665 13.26 2.48665 13.5533 2.99331C13.8467 3.49998 14 4.07331 14 4.65998V5.99331C14 6.57331 13.84 7.15331 13.5533 7.65331C13.3267 8.03998 13.0267 8.37998 12.6667 8.64665V8.87331L15.1667 9.86665ZM7.74 9.70664L9.82667 10.54C10.0733 10.64 10.2867 10.8066 10.44 11.0333C10.5867 11.2533 10.6667 11.5133 10.6667 11.78V14.66H0V11.78C0 11.5066 0.08 11.2466 0.233333 11.02C0.38 10.8 0.593333 10.6333 0.84 10.5333L2.92667 9.69997C1.27333 9.25331 0.793333 8.40664 0.74 8.29331L0.52 7.86664L0.86 7.51997C1.18 7.19997 2 6.18664 2 5.32664C2 4.43331 2.34667 3.59997 2.97333 2.96664C3.60667 2.33997 4.44667 1.99331 5.33333 1.99331C6.22 1.99331 7.06 2.33997 7.69333 2.96664C8.32 3.59997 8.66667 4.43997 8.66667 5.32664C8.66667 6.18664 9.48667 7.19997 9.80667 7.52664L10.1467 7.86664L9.92667 8.29997L9.92629 8.30064C9.86472 8.41011 9.38994 9.25424 7.74 9.70664ZM1.33333 11.78V13.32H9.32667V11.7733L6.83333 10.7733C6.58667 10.68 6.38 10.5066 6.22667 10.2866C6.08 10.0666 6 9.80664 6 9.53997V8.65331L6.58 8.57997C7.55333 8.45331 8.12 8.17997 8.42667 7.96664C7.97333 7.38664 7.33333 6.39331 7.33333 5.32664C7.33333 4.79331 7.12667 4.28664 6.74667 3.91331C5.99333 3.15997 4.67333 3.15997 3.92 3.91331C3.54 4.29331 3.33333 4.79331 3.33333 5.32664C3.33333 6.39331 2.69333 7.39331 2.24 7.95997C2.54667 8.17331 3.10667 8.43997 4.08667 8.57331L4.66667 8.65331V9.53997C4.66667 9.80664 4.58667 10.0666 4.43333 10.2933C4.28667 10.5133 4.07333 10.68 3.82667 10.78L1.33333 11.78Z" fill="#202327"/>
</g>
<defs>
<clipPath id="clip0_4_498">
<rect width="16" height="16" fill="white"/>
</clipPath>
</defs>
</svg>

<svg xmlns="http://www.w3.org/2000/svg" viewBox="0 0 16 16" class="sageicon"><path fill-rule="evenodd" d="M15.167 9.867a1.334 1.334 0 0 1 .833 1.24v3.546h-4V13.32h2.667v-2.213l-2.494-1a1.312 1.312 0 0 1-.606-.487 1.302 1.302 0 0 1-.234-.747V7.9l.334-.187a1.967 1.967 0 0 0 1-1.72V4.66c0-.353-.094-.693-.267-1a1.985 1.985 0 0 0-.733-.733 2.02 2.02 0 0 0-2 0l-.58.333-.667-1.153.58-.334a3.377 3.377 0 0 1 3.333 0c.507.294.927.714 1.22 1.22A3.32 3.32 0 0 1 14 4.66v1.333c0 .58-.16 1.16-.447 1.66a3.327 3.327 0 0 1-.886.994v.226l2.5.994Zm-7.427-.16 2.087.833c.246.1.46.267.613.493.147.22.227.48.227.747v2.88H0v-2.88a1.344 1.344 0 0 1 .84-1.247L2.927 9.7C1.273 9.253.793 8.407.74 8.293l-.22-.426.34-.347C1.18 7.2 2 6.187 2 5.327c0-.894.347-1.727.973-2.36a3.34 3.34 0 0 1 2.36-.974 3.34 3.34 0 0 1 2.36.974 3.34 3.34 0 0 1 .974 2.36c0 .86.82 1.873 1.14 2.2l.34.34-.22.433c-.062.11-.537.954-2.187 1.407ZM1.333 11.78v1.54h7.994v-1.547l-2.494-1A1.312 1.312 0 0 1 6 9.54v-.887l.58-.073c.973-.127 1.54-.4 1.847-.613-.454-.58-1.094-1.574-1.094-2.64a1.97 1.97 0 0 0-.586-1.414c-.754-.753-2.074-.753-2.827 0-.38.38-.587.88-.587 1.414 0 1.066-.64 2.066-1.093 2.633.307.213.867.48 1.847.613l.58.08v.887a1.34 1.34 0 0 1-.84 1.24l-2.494 1Z"/></svg>
